svgs/palm_store.svg

<svg width="192" height="192" viewBox="0 0 192 192" fill="none" xmlns="http://www.w3.org/2000/svg">
<path d="M112 36.0813L133.596 29.2776C138.751 27.6536 144 31.5031 144 36.9079V46.1842M112 36.0813V28.1864C112 24.1312 108.061 21.2438 104.193 22.4648L26.1935 47.0926C23.6972 47.8808 22 50.1964 22 52.8142V139.186C22 141.804 23.6972 144.119 26.1935 144.907L104.193 169.535C108.061 170.756 112 167.869 112 163.814V155.919M112 36.0813V155.919M112 155.919L133.596 162.722C138.751 164.346 144 160.497 144 155.092V145.816M144 46.1842L159.598 41.2743C164.753 39.6517 170 43.5011 170 48.9052V143.095C170 148.499 164.753 152.348 159.598 150.726L144 145.816M144 46.1842V145.816" stroke="black" stroke-width="12" stroke-linejoin="round"/>
<path d="M42 149.319V112M42 112V72.8294C42 70.0097 43.9633 67.5705 46.7178 66.968L60.8713 63.8719C75.8387 60.5978 90 71.9961 90 87.3175V91.6689C90 106.499 76.6832 117.781 62.0544 115.342L42 112Z" stroke="black" stroke-width="12" stroke-linecap="round"/>
</svg>

<svg xmlns="http://www.w3.org/2000/svg" width="192" height="192" fill="none" viewBox="0 0 192 192"><path stroke="#000" stroke-linejoin="round" stroke-width="12" d="m112 36.081 21.596-6.803c5.155-1.624 10.404 2.225 10.404 7.63v9.276m-32-10.103v-7.895c0-4.055-3.939-6.942-7.807-5.721l-78 24.628A6 6 0 0 0 22 52.814v86.372a6 6 0 0 0 4.194 5.721l77.999 24.628c3.868 1.221 7.807-1.666 7.807-5.721v-7.895m0-119.838V155.92m0 0 21.596 6.803c5.155 1.624 10.404-2.225 10.404-7.63v-9.276m0-99.632 15.598-4.91c5.155-1.623 10.402 2.226 10.402 7.63v94.19c0 5.404-5.247 9.253-10.402 7.631L144 145.816m0-99.632v99.632"/><path stroke="#000" stroke-linecap="round" stroke-width="12" d="M42 149.319V112m0 0V72.83a6 6 0 0 1 4.718-5.862l14.153-3.096C75.84 60.598 90 71.996 90 87.317v4.352c0 14.83-13.317 26.112-27.946 23.673z"/></svg>
